X:1
T:Psalm 24
T:V 1
L:1/4
M:16/4
I:linebreak $
K:C
V:1 treble nm="Pipe Organ" snm="Org."
V:1
 E3 B G2 A A G2 ^F2 E3 z |$[M:12/4] E2 G A B2 d2 ^c c B2 |$[M:14/4] B2 c B A G ^F E F2 E2 z |$ %3
w: Die gan- se aar- de, land en meer|met al wat leef, is u- we, HEER!|U het die wa- ters in hul woe- de|
 G2 G G A2 G2 ^F E D3 z |$ E2 B B G B A2 G2 ^F3 z |$ B2 A G ^F E G A F2 E4 |] %6
w: be- teu- el in die skep- ping- stond|en het die aar- de vas ge- grond|op wy- e se- ë\_en- wa- ter- vloe- de.|

